X:108
T:Reel 108
M:4/4
K:Gmaj
L:1/8
BA|G2Bc dedB|cece dedB|GABc dedB|cABG A2BA|GABc dedB|cece dBGB|gafe edBG|AGAF G2|Bc|d2gf g2fg|agfg agef|g2gf g2gb|a2ab e2ef|g2gf g2fg|agab gfdB|c2ec B2dB|AGFA G2|
